X: 42502
T: What Pain I've Endured Since Last Year
R: slip jig
M: 9/8
K: Eminor
|:eBB BAG FEF|EFG AGA Bgf|eBB BAG FEF|E2d AFF E3:|
Bee Beg ~f2e|Bee B2g ~f2e|Bee Beg fed|edB ABd ~e3|
Bee Beg ~f2e|Bee B2g ~f2e|Bef g2g fed|edB ABd ~e3||

